images/facebook.svg

<svg width="10" height="15" viewBox="0 0 10 15" fill="none" xmlns="http://www.w3.org/2000/svg">
<path d="M3.54643 14.393L3.52701 8.09607H0.986084V5.39738H3.52701V3.59825C3.52701 1.17015 4.94273 0 6.98214 0C7.95903 0 8.79862 0.0772455 9.0433 0.111771V2.64928L7.62887 2.64996C6.51973 2.64996 6.30497 3.20973 6.30497 4.03116V5.39738H9.45583L8.60885 8.09607H6.30496V14.393H3.54643Z" fill="white"/>
</svg>

<svg xmlns="http://www.w3.org/2000/svg" width="10" height="15" fill="none" viewBox="0 0 10 15"><path fill="#fff" d="m3.546 14.393-.019-6.297H.987V5.397h2.54V3.598C3.527 1.17 4.943 0 6.982 0 7.96 0 8.8.077 9.043.112v2.537L7.63 2.65c-1.11 0-1.324.56-1.324 1.381v1.366h3.15l-.846 2.7H6.305v6.296z"/></svg>
